packages/ui-icons/src/Basic/32/Headphones_32.svg

<svg xmlns="http://www.w3.org/2000/svg" viewBox="0 0 40 40"><path d="M19.47 4C10.92 4.26 4 11.72 4 20.63V30h4v2a4 4 0 0 0 4 4h4V22h-4a4 4 0 0 0-4 4v2H6v-7.37C6 12.79 12 6.23 19.53 6A14 14 0 0 1 34 20v8h-2v-2a4 4 0 0 0-4-4h-4v14h4a4 4 0 0 0 4-4v-2h4V20A16 16 0 0 0 19.47 4ZM10 26a2 2 0 0 1 2-2h2v10h-2a2 2 0 0 1-2-2Zm20 6a2 2 0 0 1-2 2h-2V24h2a2 2 0 0 1 2 2Z"/></svg>

<svg id="Ready" xmlns="http://www.w3.org/2000/svg" viewBox="0 0 40 40"><title>Megaicons_work_32_1.8_cp</title><path d="M19.47,4C10.92,4.26,4,11.72,4,20.63V30H8v2a4,4,0,0,0,4,4h4V22H12a4,4,0,0,0-4,4v2H6V20.63C6,12.79,12,6.23,19.53,6A14,14,0,0,1,34,20v8H32V26a4,4,0,0,0-4-4H24V36h4a4,4,0,0,0,4-4V30h4V20A16,16,0,0,0,19.47,4ZM10,26a2,2,0,0,1,2-2h2V34H12a2,2,0,0,1-2-2Zm20,6a2,2,0,0,1-2,2H26V24h2a2,2,0,0,1,2,2Z"/></svg>
